!!!OTL: ES RITTEN ZWEI HERZLIEBCHEN
!!!ARE: Europa, Mitteleuropa, Deutschland, Mosel - Gegend
!!!SCT: E0194A
!!!YEM: Copyright 1995, estate of Helmut Schaffrath.
**kern
*ICvox
*Ivox
*M3/4
*k[f#]
*G:
{4d
=1
4.g
8f#
8g
8b
=2
4a
4g}
{4a
=3
4.b
8cc
4b
=4
2a}
{8g
8b
=5
4dd
4dd
8dd
8cc
=6
4b
4a}
{8g
8a
=7
4b
4b
4a
=8
2g}
==
!!!AGN: erzaehlendes Volks - Lied, Sage, Familien - Geschichte
!!!ONB: ESAC (Essen Associative Code) Database: ERK1
!!!AMT: simple triple
!!!AIN: vox
!!!EED: Helmut Schaffrath
!!!EEV: 1.0
*-
